TV/Source/TV Severka - Dark.svg

<svg height="1.484707mm" viewBox="0 0 5.4914446 1.4847066" width="5.491445mm" xmlns="http://www.w3.org/2000/svg"><path d="m0 0-1.782.061.252.796.211-.599h1.72v-.224l-.972-.735.251-.809s.123-.231-.115-.333l-.395 1.203z" fill="#52a948" transform="matrix(.35277777 0 0 -.35277777 1.355795 .69353)"/><path d="m0 0-.602-1.678-.681.482.635.018.524 1.639.214-.069.403-1.15.848-.007s.257.046.282-.212l-1.267-.008z" fill="#fcc318" transform="matrix(.35277777 0 0 -.35277777 .831532 .16263)"/><path d="m0 0 1.495.972.25-.796-.516.369-1.409-.987-.129.184.375 1.159-.67.519s-.233.12-.097.339l1.014-.759z" fill="#52a948" transform="matrix(.35277777 0 0 -.35277777 .275837 1.22968)"/><path d="m0 0-.47 1.72.835-.004-.51-.379.511-1.644-.215-.066-.989.711-.699-.48s-.185-.186-.352.011l1.032.734z" fill="#fcc318" transform="matrix(.35277777 0 0 -.35277777 1.014589 1.35312)"/><path d="m0 0 1.41-1.091-.669-.499.179.609-1.397 1.006.131.182 1.219.028.269.804s.035.259.288.203l-.383-1.208z" transform="matrix(.35277777 0 0 -.35277777 .168275 .49368)"/><path d="m0 0c .059-.016.125-.024.2-.024.127 0 .231.033.312.099.081.067.121.151.121.255 0 .144-.105.275-.315.394l-.089.051c-.068.037-.115.069-.142.096-.027.026-.041.054-.041.083 0 .034.015.061.045.082s.069.031.117.031c.094 0 .216-.045.364-.135v.247c-.13.07-.257.104-.38.104-.119 0-.216-.03-.291-.091-.076-.062-.113-.141-.113-.238 0-.074.024-.144.074-.207.05-.064.155-.14.316-.23.08-.045.133-.08.157-.105.024-.024.036-.054.036-.091 0-.035-.018-.066-.056-.091-.037-.026-.082-.039-.134-.039-.05 0-.112.015-.186.046-.073.031-.145.071-.216.12v-.269c.089-.043.162-.072.221-.088m1.995.638c0 .196-.049.353-.149.47s-.233.175-.4.175c-.174 0-.315-.06-.424-.18s-.163-.276-.163-.468c0-.128.026-.24.078-.338.051-.097.12-.174.206-.232.086-.057.198-.086.337-.086.101 0 .19.011.265.033s.151.058.228.109v.244c-.139-.102-.29-.153-.455-.153-.117 0-.214.036-.288.107-.075.071-.115.167-.121.287h.886zm-.769.348c.057.054.13.081.22.081.089 0 .16-.027.213-.081.054-.054.083-.131.09-.23h-.635c.017.099.055.176.112.23m1.442-.503-.341.776h-.273l.57-1.283h.085l.557 1.283h-.271zm1.802.155c0 .196-.05.353-.149.47-.1.117-.233.175-.4.175-.174 0-.315-.06-.424-.18-.108-.12-.163-.276-.163-.468 0-.128.026-.24.078-.338.051-.097.12-.174.206-.232.086-.057.198-.086.337-.086.101 0 .19.011.265.033s.152.058.228.109v.244c-.139-.102-.29-.153-.455-.153-.118 0-.214.036-.288.107-.075.071-.115.167-.121.287h.886zm-.769.348c.057.054.13.081.22.081.089 0 .161-.027.213-.081.053-.054.083-.131.09-.23h-.635c.017.099.055.176.112.23m1.056.273v-1.261h.25v.659c0 .105.03.196.089.273s.128.115.209.115c.074 0 .154-.041.241-.123l.132.219c-.103.095-.201.142-.295.142-.121 0-.241-.097-.362-.292l-.014-.021v.289zm1.355-.618.631-.643h.335l-.648.644.538.617h-.296zm-.26-.643h.249v1.914h-.249zm2.127.974c-.006.037-.02.075-.042.113s-.046.069-.074.092c-.082.071-.191.106-.327.106-.182 0-.321-.057-.418-.171v-.273c.129.141.261.212.397.212.152 0 .228-.077.228-.228v-.067l-.32-.11c-.105-.037-.186-.086-.243-.149-.057-.062-.086-.133-.086-.213 0-.087.03-.16.088-.218.059-.058.132-.087.22-.087.119 0 .232.041.338.123.019-.084.082-.126.189-.126.038 0 .073.007.108.02.034.013.079.038.136.075v.152c-.064-.045-.111-.068-.141-.068-.029 0-.044.022-.044.065v.536c0 .106-.003.178-.009.216m-.457-.822c-.053 0-.096.016-.129.049-.034.033-.05.076-.05.128 0 .051.017.094.052.128.036.034.096.068.18.102l.168.064v-.373c-.068-.066-.141-.098-.221-.098m.883.105c-.032-.031-.048-.071-.048-.117s.016-.084.048-.115c.031-.031.071-.047.118-.047s.087.016.119.047c.033.031.049.069.049.115s-.017.086-.049.117c-.033.033-.073.049-.119.049-.047 0-.087-.016-.118-.049m.427.779h.22v-.559c0-.114.005-.192.015-.232.011-.041.024-.074.039-.099.016-.025.036-.048.059-.068.076-.067.171-.1.285-.1.113 0 .218.027.314.081v.233c-.099-.06-.194-.089-.283-.089-.12 0-.18.072-.18.216v.617h.399v.225h-.399v.26l-.469-.46zm1.556-.551-.34.776h-.273l.57-1.283h.084l.557 1.283h-.27z" transform="matrix(.35277777 0 0 -.35277777 1.615828 1.21765)"/></svg>

<?xml version="1.0" encoding="UTF-8" standalone="no"?>
<!-- Created with Inkscape (http://www.inkscape.org/) -->

<svg
   xmlns:dc="http://purl.org/dc/elements/1.1/"
   xmlns:cc="http://creativecommons.org/ns#"
   xmlns:rdf="http://www.w3.org/1999/02/22-rdf-syntax-ns#"
   xmlns:svg="http://www.w3.org/2000/svg"
   xmlns="http://www.w3.org/2000/svg"
   xmlns:sodipodi="http://sodipodi.sourceforge.net/DTD/sodipodi-0.dtd"
   xmlns:inkscape="http://www.inkscape.org/namespaces/inkscape"
   width="5.4914446mm"
   height="1.4847066mm"
   viewBox="0 0 5.4914446 1.4847066"
   version="1.1"
   id="svg57359"
   inkscape:version="0.92.0 r15299"
   sodipodi:docname="TV Severka - Dark.svg">
  <defs
     id="defs57353">
    <clipPath
       clipPathUnits="userSpaceOnUse"
       id="clipPath21416">
      <path
         d="m 372.123,460.03 h 15.475 v 7.72 h -15.475 z"
         id="path21414"
         inkscape:connector-curvature="0" />
    </clipPath>
    <clipPath
       clipPathUnits="userSpaceOnUse"
       id="clipPath22560">
      <path
         d="m 371.508,444.753 h 16.703 v 5.959 h -16.703 z"
         id="path22558"
         inkscape:connector-curvature="0" />
    </clipPath>
  </defs>
  <sodipodi:namedview
     id="base"
     pagecolor="#ffffff"
     bordercolor="#666666"
     borderopacity="1.0"
     inkscape:pageopacity="0.0"
     inkscape:pageshadow="2"
     inkscape:zoom="31.678384"
     inkscape:cx="8.5056133"
     inkscape:cy="1.8392146"
     inkscape:document-units="mm"
     inkscape:current-layer="layer1"
     showgrid="false"
     fit-margin-top="0"
     fit-margin-left="0"
     fit-margin-right="0"
     fit-margin-bottom="0"
     inkscape:window-width="1920"
     inkscape:window-height="1017"
     inkscape:window-x="-8"
     inkscape:window-y="-8"
     inkscape:window-maximized="1" />
  <metadata
     id="metadata57356">
    <rdf:RDF>
      <cc:Work
         rdf:about="">
        <dc:format>image/svg+xml</dc:format>
        <dc:type
           rdf:resource="http://purl.org/dc/dcmitype/StillImage" />
        <dc:title></dc:title>
      </cc:Work>
    </rdf:RDF>
  </metadata>
  <g
     inkscape:label="Layer 1"
     inkscape:groupmode="layer"
     id="layer1"
     transform="translate(19.305901,-146.02816)">
    <g
       id="g22562"
       transform="matrix(0.35277777,0,0,-0.35277777,-17.950106,146.72169)">
      <path
         d="m 0,0 -1.782,0.061 0.252,0.796 0.211,-0.599 h 1.72 V 0.034 L -0.571,-0.701 -0.32,-1.51 c 0,0 0.123,-0.231 -0.115,-0.333 L -0.83,-0.64 Z"
         style="fill:#52a948;fill-opacity:1;fill-rule:nonzero;stroke:none"
         id="path22564"
         inkscape:connector-curvature="0" />
    </g>
    <g
       id="g22566"
       transform="matrix(0.35277777,0,0,-0.35277777,-18.474369,146.19079)">
      <path
         d="m 0,0 -0.602,-1.678 -0.681,0.482 0.635,0.018 0.524,1.639 0.214,-0.069 0.403,-1.15 0.848,-0.007 c 0,0 0.257,0.046 0.282,-0.212 L 0.356,-0.985 Z"
         style="fill:#fcc318;fill-opacity:1;fill-rule:nonzero;stroke:none"
         id="path22568"
         inkscape:connector-curvature="0" />
    </g>
    <g
       id="g22570"
       transform="matrix(0.35277777,0,0,-0.35277777,-19.030064,147.25784)">
      <path
         d="M 0,0 1.495,0.972 1.745,0.176 1.229,0.545 -0.18,-0.442 -0.309,-0.258 0.066,0.901 -0.604,1.42 c 0,0 -0.233,0.12 -0.097,0.339 L 0.313,1 Z"
         style="fill:#52a948;fill-opacity:1;fill-rule:nonzero;stroke:none"
         id="path22572"
         inkscape:connector-curvature="0" />
    </g>
    <g
       id="g22574"
       transform="matrix(0.35277777,0,0,-0.35277777,-18.291312,147.38128)">
      <path
         d="M 0,0 -0.47,1.72 0.365,1.716 -0.145,1.337 0.366,-0.307 0.151,-0.373 -0.838,0.338 -1.537,-0.142 c 0,0 -0.185,-0.186 -0.352,0.011 l 1.032,0.734 z"
         style="fill:#fcc318;fill-opacity:1;fill-rule:nonzero;stroke:none"
         id="path22576"
         inkscape:connector-curvature="0" />
    </g>
    <g
       id="g22578"
       transform="matrix(0.35277777,0,0,-0.35277777,-19.137626,146.52184)">
      <path
         d="M 0,0 1.41,-1.091 0.741,-1.59 0.92,-0.981 -0.477,0.025 -0.346,0.207 0.873,0.235 1.142,1.039 c 0,0 0.035,0.259 0.288,0.203 L 1.047,0.034 Z"
         style="fill:#000000;fill-opacity:1;fill-rule:nonzero;stroke:none"
         id="path22580"
         inkscape:connector-curvature="0" />
    </g>
    <g
       id="g22582"
       transform="matrix(0.35277777,0,0,-0.35277777,-17.690073,147.24581)">
      <path
         d="m 0,0 c 0.059,-0.016 0.125,-0.024 0.2,-0.024 0.127,0 0.231,0.033 0.312,0.099 0.081,0.067 0.121,0.151 0.121,0.255 0,0.144 -0.105,0.275 -0.315,0.394 L 0.229,0.775 C 0.161,0.812 0.114,0.844 0.087,0.871 0.06,0.897 0.046,0.925 0.046,0.954 c 0,0.034 0.015,0.061 0.045,0.082 0.03,0.021 0.069,0.031 0.117,0.031 0.094,0 0.216,-0.045 0.364,-0.135 V 1.179 C 0.442,1.249 0.315,1.283 0.192,1.283 0.073,1.283 -0.024,1.253 -0.099,1.192 -0.175,1.13 -0.212,1.051 -0.212,0.954 -0.212,0.88 -0.188,0.81 -0.138,0.747 -0.088,0.683 0.017,0.607 0.178,0.517 0.258,0.472 0.311,0.437 0.335,0.412 0.359,0.388 0.371,0.358 0.371,0.321 0.371,0.286 0.353,0.255 0.315,0.23 0.278,0.204 0.233,0.191 0.181,0.191 c -0.05,0 -0.112,0.015 -0.186,0.046 -0.073,0.031 -0.145,0.071 -0.216,0.12 V 0.088 C -0.132,0.045 -0.059,0.016 0,0 m 1.995,0.638 c 0,0.196 -0.049,0.353 -0.149,0.47 -0.1,0.117 -0.233,0.175 -0.4,0.175 -0.174,0 -0.315,-0.06 -0.424,-0.18 C 0.913,0.983 0.859,0.827 0.859,0.635 0.859,0.507 0.885,0.395 0.937,0.297 0.988,0.2 1.057,0.123 1.143,0.065 1.229,0.008 1.341,-0.021 1.48,-0.021 c 0.101,0 0.19,0.011 0.265,0.033 C 1.82,0.034 1.896,0.07 1.973,0.121 V 0.365 C 1.834,0.263 1.683,0.212 1.518,0.212 1.401,0.212 1.304,0.248 1.23,0.319 1.155,0.39 1.115,0.486 1.109,0.606 H 1.995 Z M 1.226,0.986 c 0.057,0.054 0.13,0.081 0.22,0.081 0.089,0 0.16,-0.027 0.213,-0.081 0.054,-0.054 0.083,-0.131 0.09,-0.23 H 1.114 c 0.017,0.099 0.055,0.176 0.112,0.23 M 2.668,0.483 2.327,1.259 H 2.054 l 0.57,-1.283 H 2.709 L 3.266,1.259 H 2.995 Z M 4.47,0.638 c 0,0.196 -0.05,0.353 -0.149,0.47 -0.1,0.117 -0.233,0.175 -0.4,0.175 -0.174,0 -0.315,-0.06 -0.424,-0.18 C 3.389,0.983 3.334,0.827 3.334,0.635 3.334,0.507 3.36,0.395 3.412,0.297 3.463,0.2 3.532,0.123 3.618,0.065 3.704,0.008 3.816,-0.021 3.955,-0.021 c 0.101,0 0.19,0.011 0.265,0.033 0.075,0.022 0.152,0.058 0.228,0.109 V 0.365 C 4.309,0.263 4.158,0.212 3.993,0.212 3.875,0.212 3.779,0.248 3.705,0.319 3.63,0.39 3.59,0.486 3.584,0.606 H 4.47 Z M 3.701,0.986 C 3.758,1.04 3.831,1.067 3.921,1.067 4.01,1.067 4.082,1.04 4.134,0.986 4.187,0.932 4.217,0.855 4.224,0.756 H 3.589 c 0.017,0.099 0.055,0.176 0.112,0.23 m 1.056,0.273 v -1.261 h 0.25 v 0.659 c 0,0.105 0.03,0.196 0.089,0.273 0.059,0.077 0.128,0.115 0.209,0.115 0.074,0 0.154,-0.041 0.241,-0.123 L 5.678,1.141 C 5.575,1.236 5.477,1.283 5.383,1.283 5.262,1.283 5.142,1.186 5.021,0.991 L 5.007,0.97 V 1.259 Z M 6.112,0.641 6.743,-0.002 H 7.078 L 6.43,0.642 6.968,1.259 H 6.672 Z M 5.852,-0.002 H 6.101 V 1.912 H 5.852 Z M 7.979,0.972 C 7.973,1.009 7.959,1.047 7.937,1.085 7.915,1.123 7.891,1.154 7.863,1.177 7.781,1.248 7.672,1.283 7.536,1.283 7.354,1.283 7.215,1.226 7.118,1.112 V 0.839 c 0.129,0.141 0.261,0.212 0.397,0.212 0.152,0 0.228,-0.077 0.228,-0.228 V 0.756 L 7.423,0.646 C 7.318,0.609 7.237,0.56 7.18,0.497 7.123,0.435 7.094,0.364 7.094,0.284 c 0,-0.087 0.03,-0.16 0.088,-0.218 0.059,-0.058 0.132,-0.087 0.22,-0.087 0.119,0 0.232,0.041 0.338,0.123 0.019,-0.084 0.082,-0.126 0.189,-0.126 0.038,0 0.073,0.007 0.108,0.02 0.034,0.013 0.079,0.038 0.136,0.075 V 0.223 C 8.109,0.178 8.062,0.155 8.032,0.155 8.003,0.155 7.988,0.177 7.988,0.22 v 0.536 c 0,0.106 -0.003,0.178 -0.009,0.216 M 7.522,0.15 c -0.053,0 -0.096,0.016 -0.129,0.049 -0.034,0.033 -0.05,0.076 -0.05,0.128 0,0.051 0.017,0.094 0.052,0.128 0.036,0.034 0.096,0.068 0.18,0.102 L 7.743,0.621 V 0.248 C 7.675,0.182 7.602,0.15 7.522,0.15 M 8.405,0.255 C 8.373,0.224 8.357,0.184 8.357,0.138 c 0,-0.046 0.016,-0.084 0.048,-0.115 0.031,-0.031 0.071,-0.047 0.118,-0.047 0.047,0 0.087,0.016 0.119,0.047 0.033,0.031 0.049,0.069 0.049,0.115 0,0.046 -0.017,0.086 -0.049,0.117 C 8.609,0.288 8.569,0.304 8.523,0.304 8.476,0.304 8.436,0.288 8.405,0.255 m 0.427,0.779 h 0.22 V 0.475 C 9.052,0.361 9.057,0.283 9.067,0.243 9.078,0.202 9.091,0.169 9.106,0.144 9.122,0.119 9.142,0.096 9.165,0.076 c 0.076,-0.067 0.171,-0.1 0.285,-0.1 0.113,0 0.218,0.027 0.314,0.081 V 0.29 C 9.665,0.23 9.57,0.201 9.481,0.201 c -0.12,0 -0.18,0.072 -0.18,0.216 V 1.034 H 9.7 V 1.259 H 9.301 v 0.26 L 8.832,1.059 Z m 1.556,-0.551 -0.34,0.776 H 9.775 l 0.57,-1.283 h 0.084 l 0.557,1.283 h -0.27 z"
         style="fill:#000000;fill-opacity:1;fill-rule:nonzero;stroke:none"
         id="path22584"
         inkscape:connector-curvature="0" />
    </g>
  </g>
</svg>
